X: 8136
T: Convent, The
R: reel
M: 4/4
K: Dmajor
A|:DFEG FDDd|Adfe dBB2|Adfe dfaf|edef efge
DFEG EDDd|Adfe dBB2|AFAd fedB|AFEG FDDA:|
|:fedf afef|dafe dBB2|Adfe dfaf|edef efge|
fedf afef|dafe dBB2|AFAd BGBd|1 ceAc d3A:|2 ceAc d2z2||

